icon_installer/data/icons/scalable/actions/show-monitor-pick-symbolic.svg

<?xml version="1.0" encoding="UTF-8"?>
<svg height="16px" viewBox="0 0 16 16" width="16px" xmlns="http://www.w3.org/2000/svg">
    <path d="m 2.1875 2 c -1.195312 0 -2.1875 0.992188 -2.1875 2.1875 v 3.644531 c 0 1.195313 0.992188 2.1875 2.1875 2.1875 h 4.625 c 0.433594 0 0.84375 -0.132812 1.1875 -0.355469 c 0.34375 0.222657 0.753906 0.355469 1.1875 0.355469 h 4.625 c 1.195312 0 2.1875 -0.992187 2.1875 -2.1875 v -3.644531 c 0 -1.195312 -0.992188 -2.1875 -2.1875 -2.1875 h -4.625 c -0.433594 0 -0.84375 0.132812 -1.1875 0.359375 c -0.34375 -0.226563 -0.753906 -0.359375 -1.1875 -0.359375 z m 0 2 h 4.625 c 0.121094 0 0.1875 0.066406 0.1875 0.1875 v 3.644531 c 0 0.121094 -0.066406 0.1875 -0.1875 0.1875 h -4.625 c -0.121094 0 -0.1875 -0.066406 -0.1875 -0.1875 v -3.644531 c 0 -0.121094 0.066406 -0.1875 0.1875 -0.1875 z m 7 0 h 4.625 c 0.121094 0 0.1875 0.066406 0.1875 0.1875 v 3.644531 c 0 0.121094 -0.066406 0.1875 -0.1875 0.1875 h -4.625 c -0.121094 0 -0.1875 -0.066406 -0.1875 -0.1875 v -3.644531 c 0 -0.121094 0.066406 -0.1875 0.1875 -0.1875 z m -4.6875 6.933594 c -2.5 0 -2.5 0.5 -2.5 0.5 c 0 0.5 0.5 0.5 0.5 0.5 h 4 c 0.5 0 0.5 -0.5 0.5 -0.5 s 0 -0.5 -2.5 -0.5 z m 7 0 c -2.5 0 -2.5 0.5 -2.5 0.5 c 0 0.5 0.5 0.5 0.5 0.5 h 4 c 0.5 0 0.5 -0.5 0.5 -0.5 s 0 -0.5 -2.5 -0.5 z m -7.03125 2.035156 l -3 3 h 6 z m 0 0" fill="#222222"/>
</svg>

<svg xmlns="http://www.w3.org/2000/svg" width="16" height="16"><path fill="#222" d="M2.188 2A2.204 2.204 0 0 0 0 4.188v3.644c0 1.195.992 2.188 2.188 2.188h4.624c.434 0 .844-.133 1.188-.356.344.223.754.356 1.188.356h4.624A2.204 2.204 0 0 0 16 7.832V4.188A2.204 2.204 0 0 0 13.812 2H9.189c-.434 0-.844.133-1.188.36A2.158 2.158 0 0 0 6.812 2zm0 2h4.624c.122 0 .188.066.188.188v3.644c0 .121-.066.188-.188.188H2.188c-.12 0-.187-.067-.187-.188V4.188C2 4.066 2.066 4 2.188 4zm7 0h4.624c.122 0 .188.066.188.188v3.644c0 .121-.066.188-.188.188H9.189C9.066 8.02 9 7.953 9 7.832V4.188C9 4.066 9.066 4 9.188 4zM4.5 10.934c-2.5 0-2.5.5-2.5.5 0 .5.5.5.5.5h4c.5 0 .5-.5.5-.5s0-.5-2.5-.5zm7 0c-2.5 0-2.5.5-2.5.5 0 .5.5.5.5.5h4c.5 0 .5-.5.5-.5s0-.5-2.5-.5zm-7.031 2.035-3 3h6zm0 0"/></svg>
